X: 1507
T: Andy Dickson's
R: reel
M: 4/4
K: Dmajor
A,FFE FEDE|FAdB ABFE|DEFA dAFD|GEFD EDB,D|
A,FFE FEDE|FAdB ABFE|DEFA dAFD|1 GECE D3B,:|2 GECE D3g||
|:fd~d2 edcA|dF~F2 BFA2|~f3d edcA|Bdgb a3g|
f2df edcA|~d3A BAFD|EFAB dAFD|1 GECE D3g:|2 GECE D3B,||

